X:1
T: Mr. Maule's Frolick
C:Nathaniel Gow
R:Jig
Q:180
K:F
M:6/8
L:1/16
|:c2|f4c2 c4A2|A4F2 F4C2|C4C2 C2F2E2|D2G2F2 E4c2|
f4c2 c4A2|A4F2 F4C2|D2B2A2 G2F2E2|E6F4:|
b2|c'4c'2 c'4b2|c'4c'2 c'4b2|a2b2c'2 c'2a2f2|e2g2g2 g4b2|
c'4c'2 c'4b2|a2b2c'2 c'2a2f2|d2b2a2 g2f2e2|e6f4b2|
c'4c'2 c'4b2|c'4c'2 c'4b2|a2b2c'2 c'2a2f2|e2g2g2 g4b2|
a2b2c'2 c'2b2a2|b2c'2d'2 g2a2b2|a2g2f2 g2f2e2|f6F4||
